X: 24294
T: Lost Indian
R: reel
M: 4/4
K: Gmajor
E2 GE F2 AG|E2 GE D2 CD|E2 GE F2 AG|EGAG A3 Gd|
E2 GE F2 AG|E2 GE D2 CD|E2 GE F2 AG|EGAG A3 Gd:|
e3 (e e2) A2|defd edcA|e3 (e e2) A2|defd c3 Ae|e3 (e e2) A2|
defd edcA|e3 (e e2) A2|defd c2|D4 D4:|

